svgs/tor_browser.svg

<svg width="192" height="192" viewBox="0 0 192 192" fill="none" xmlns="http://www.w3.org/2000/svg">
<path d="M96 170C136.869 170 170 136.869 170 96C170 55.1309 136.869 22 96 22C55.1309 22 22 55.1309 22 96C22 136.869 55.1309 170 96 170Z" stroke="black" stroke-width="12" stroke-linecap="round" stroke-linejoin="round"/>
<path d="M96 46C102.566 46 109.068 47.2933 115.134 49.806C121.2 52.3188 126.712 56.0017 131.355 60.6447C135.998 65.2876 139.681 70.7995 142.194 76.8658C144.707 82.9321 146 89.4339 146 96C146 102.566 144.707 109.068 142.194 115.134C139.681 121.2 135.998 126.712 131.355 131.355C126.712 135.998 121.2 139.681 115.134 142.194C109.068 144.707 102.566 146 96 146" stroke="black" stroke-width="12" stroke-linecap="round"/>
<path d="M96 70C99.4144 70 102.795 70.6725 105.95 71.9791C109.104 73.2858 111.97 75.2009 114.385 77.6152C116.799 80.0295 118.714 82.8958 120.021 86.0502C121.327 89.2047 122 92.5856 122 96C122 99.4144 121.327 102.795 120.021 105.95C118.714 109.104 116.799 111.97 114.385 114.385C111.97 116.799 109.104 118.714 105.95 120.021C102.795 121.327 99.4144 122 96 122" stroke="black" stroke-width="12" stroke-linecap="round"/>
</svg>

<svg xmlns="http://www.w3.org/2000/svg" width="192" height="192" fill="none" stroke="#000" stroke-width="12" xmlns:v="https://vecta.io/nano"><path d="M96 170c40.869 0 74-33.131 74-74s-33.131-74-74-74-74 33.131-74 74 33.131 74 74 74z" stroke-linejoin="round"/><g stroke-linecap="round"><path d="M96 46a50 50 0 0 1 19.134 3.806c6.066 2.513 11.578 6.196 16.221 10.839s8.326 10.155 10.839 16.221S146 89.434 146 96s-1.293 13.068-3.806 19.134-6.196 11.578-10.839 16.221-10.155 8.326-16.221 10.839S102.566 146 96 146"/><path d="M96 70c3.414 0 6.795.672 9.95 1.979s6.02 3.222 8.435 5.636A26.01 26.01 0 0 1 122 96c0 3.414-.673 6.795-1.979 9.95s-3.222 6.02-5.636 8.435-5.281 4.329-8.435 5.636S99.414 122 96 122"/></g></svg>
